X:1
T:Longing
T:Longing
T:Marguerite Aythelda Bixler
T:Marguerite Aythelda Bixler, 1906
T:Public Domain Courtesy of the Cyber Hymnal™
T:Public Domain Courtesy of the Cyber Hymnal™
C:Marguerite Aythelda Bixler
Z:Public Domain
Z:Courtesy of the Cyber Hymnal™
%%score ( 1 2 ) 3
L:1/8
Q:1/4=96
M:9/8
K:F
V:1 treble 
V:2 treble 
V:3 bass 
V:1
 A^GA | B3 A3 AcB | A6 AGF | B3 d3 dcB | A6 A^GA | F3 A2 A ccc | B6 dBd | c3 A2 F A!fermata!AG | %8
w: 1.~O- ver the|riv- er voic- es I|hear; Sweet are the|songs they’re sing- ing to|me; Call- ing me|home- ward in glo- ry to|be, O how I’m|long- ing their fac- es to|
w: 2.~O- ver the|riv- er man- sions I|see; All are a-|glow with new ra- dian-|cy; Glo- ri- fied|ones who from sor- row are|free, In bliss and|beau- ty for- ev- er will|
w: 3.~O- ver the|riv- er, when shall it|be? When shall I|hear, “The Mas- ter calls|thee”? Calls thee to|en- ter His man- sions a-|bove, Man- sions of|glo- ry, of ser- vice, of|
 F3- F2 ||"^Refrain" CC[CF] [FA] | [Fc]3 [Fc]3 [FA]F[FA] | [Ec]3 [Ec]3 [CE][EG][EB] | %12
w: see! *||||
w: be. *|I’m long- ing to|meet them, Long- ing to|greet them, Long- ing to|
w: love. *||||
 [Ed]3 [Ed]3 [EG][EB][Ed] | [Fc]6 C[CF][FA] | [Fc]3 [Fc]2 [Fc] [FA][FG]F | %15
w: |||
w: join in praise un- to|Thee; O lov- ing|Sav- ior, ac- quaint- ed with|
w: |||
 [Fd]3 [FB]3 [Fd][FB][Fd] | [Fc]3 [FA]2 [CF] C[CE][CG] | [CF]6 |] %18
w: |||
w: sor- row, Haste the glad|day when u- nit- ed we’ll|be.|
w: |||
V:2
 x3 | x9 | x9 | x9 | x9 | x9 | x9 | x9 | x5 || x4 | x7 F x | x9 | x9 | x6 C x2 | x8 F | x9 | %16
 x6 C x2 | x6 |] %18
V:3
 C=B,C | D3 C3 CED | C6 CB,A, | D3 F3 FED | C6 C=B,C | A,3 C2 C _EEE | D6 FDB, | %7
 A,3 C2 A, C!fermata!CB, | A,3- A,2 || [F,A,][F,A,][F,A,] [F,C] | %10
 [F,A,]3 [F,A,]3 [F,C][F,A,][F,C] | [G,B,]3 [G,B,]3 [C,B,][C,B,][C,G,] | %12
 [C,B,]3 [C,B,]3 [C,B,][C,G,][C,B,] | [F,A,]6 [F,A,][F,A,][F,C] | %14
 [F,A,]3 [F,A,]2 [F,A,] [F,C][F,B,][F,A,] | [B,,B,]3 [B,,D]3 [B,,B,][B,,D][B,,B,] | %16
 [C,A,]3 [C,C]2 [C,A,] [C,E,][C,G,][C,B,] | [F,A,]6 |] %18

